X:2453
T:Polska från Småland
T:Svenska Folkdansar H2 nr 2
O:Småland
B:Traditioner av Svenska Folkdansar Häfte 2, nr 2
R:Polska
Z:Nils L
U:V=wedge
U:t=tenuto
M:3/4
L:1/8
K:Bb
f2 fd eg | (gf) fd Bd | f2 fd cd | (e2 d2) z2 ::
VB2 td2 (c>d) | A2 (G>A) F2 | VB2 td2 (c>d) | A2 (G>A) (F>A) | c2 B2 z2 :|
(:musicend:)
(:music:)
